X: 39576
T: Teelin Bay
R: waltz
M: 3/4
K: Gmajor
DF|GF G2B2|d4gf|ef g3e|
dB G2gf|ef g3e|dB G2AB|cB d2D2|E4DF|GF G2B2|d4gf|
ef g3f/e/|dB G2gf|ef g3e|dB G2c2|BA G2F2|G6-|G4:|
fg|af d2g"^III"b|c'a f2fb|c'b d'2b2|
a4fg|af d2c'2|b"^I"g c2b2|ag e2c2|
A4fg|af d2ga|"^III"b"^V"d' e'3d'|e'd' g'2"^III"b2|
a4"^V"g'f'|e'2d'4-|d'4g'f'|e'2d'4-|
d'4"^III"ab|c'b a2"^I"g2|e6-|e4AB|
cB AG EC|(D6|d4)DF|GF G2B2|d4gf|ef g3e|
dB G2gf|ef g3e|dB G2AB|cB d2D2|E4DF|GF G2B2|
d4gf|ef g2fe|dB G2gf|ef g2ge|dB G2c2|BA G2FG|G6-|G4||

